!!!SOCIAL_FUNCTION:	miscellaneous songs
!!!PDT:	1943
!!!OTL: No_88_Song_of_a_Seal.krn
!!!REG: British Columbia
**kern
*staff1
=1-
*clefF4
*k[b-e-a-]
*M3/4
2r
4G\
=2
2G\
8G\L
8E-\J
=3||
*M2/4
8C/
8r
4G\
=4||
*M3/4
4.G\
16E-\
16r
4G\
=5||
*M2/4
8E-/L
8C/J
4E-\
=6||
*M3/4
2.E-\
=7||
*M2/4
8E-/L
8C/J
4E-\
=8
8C/L
8C/J
8C/
16r
16E-\
=9||
*M3/4
2E-\
8E-/L
16C/Jk
16r
=10||
*M2/4
4E-\
8.C/L
16BB-/Jk
=11
4C/
4C/
==
*-
